X:19
T:Christ hier, Christ aujourd'hui
T:(Hymne pour le Jubil)
C:J.P. Lcot
M:6/4
Q:"A 2 temps" 3/4=56
L:1/4
%%staves [(1 2) (3 4)]
K:F
%refrain
V:1
F2D|C3 FFD|C3 D2E|F3/G/A G2G|
V:2
C2G,|A,3 CCB,|A,3 A,2C|C3/C/C D2D|
V:3
A,2F,|F,3 A,A,G,|E,3 F,2G,|A,3/B,/F, D,2D,|
V:4
F,,2B,,|F,3 F,,F,,G,,|A,,3 D,2C,|F,3/F,/F, B,,2B,,|
V:1
A3 G2G|B3 AGF|G3 F2C|(D3/E/)F G2G|F3|]
V:2
^C3 =C2C|D3 CB,A,|C3 A,2A,|(B,3/C/)C (DF)E|C3|]
V:3
E,3 E,2E,|F,3 F,F,F,|E,3 F,2_E,|(F,3/G,/)A, B,2G,|A,3|]
V:4
A,,3 C,2C,|B,,3 F,,F,,F,,|C,3 D,2C,|B,,2A,, G,,2C,|F,,3|]
%couplets
V:1
AAA|G3 FED|E3 DDD|G2F (_ED)C|D3 B,B,B,|
V:2
CCC|C3 A,A,D|C3 B,B,B,|B,2B, B,2B,|B,3 B,B,B,|
V:3
F,F,F,|E,3 A,G,F,|A,3 F,F,F,|_E,2D, (G,F,)E,|F,3 F,F,F,|
V:4
F,,F,,F,,|C,3 D,D,D,|A,,3 B,,B,,B,,|_E,,2F,, G,,2G,,|B,,3 D,D,D,|
V:1
D2D G2G|F3 B2B|A2A GFG|[M:9/4]A3 ccc B2A|[M:6/4]G3||
V:2
B,2B, (_EB,)C|D3 D2=E|F2F EDE|[M:9/4]E3 CCC D2C|[M:6/4]C3||
V:3
B,2B, B,2G,|A,3 B,2B,|C2C CCC|[M:9/4]C3 F,F,F, F,2F,|[M:6/4]E,3||
V:4
G,2G, _E,2E,|D,3 G,2G,|F,2F, C,C,C,|[M:9/4]A,,3 A,,A,,A,, B,,2F,,|[M:6/4]C,3||
